icons/svg/tourist/train.svg

<?xml version="1.0" encoding="UTF-8" standalone="no"?>
<!-- Created with Inkscape (http://www.inkscape.org/) -->

<svg
   xmlns:dc="http://purl.org/dc/elements/1.1/"
   xmlns:cc="http://creativecommons.org/ns#"
   xmlns:rdf="http://www.w3.org/1999/02/22-rdf-syntax-ns#"
   xmlns:svg="http://www.w3.org/2000/svg"
   xmlns="http://www.w3.org/2000/svg"
   xmlns:sodipodi="http://sodipodi.sourceforge.net/DTD/sodipodi-0.dtd"
   xmlns:inkscape="http://www.inkscape.org/namespaces/inkscape"
   version="1.0"
   width="580"
   height="580"
   id="svg2"
   sodipodi:version="0.32"
   inkscape:version="0.48.4 r9939"
   sodipodi:docname="attraction_swing_carousel.svg"
   inkscape:output_extension="org.inkscape.output.svg.inkscape">
  <metadata
     id="metadata2975">
    <rdf:RDF>
      <cc:Work
         rdf:about="">
        <dc:format>image/svg+xml</dc:format>
        <dc:type
           rdf:resource="http://purl.org/dc/dcmitype/StillImage" />
        <cc:license
           rdf:resource="http://web.resource.org/cc/PublicDomain" />
        <dc:language>en</dc:language>
        <dc:title></dc:title>
      </cc:Work>
    </rdf:RDF>
  </metadata>
  <sodipodi:namedview
     inkscape:window-height="1004"
     inkscape:window-width="1920"
     inkscape:pageshadow="2"
     inkscape:pageopacity="0.0"
     guidetolerance="10.0"
     gridtolerance="10.0"
     objecttolerance="10.0"
     borderopacity="1.0"
     bordercolor="#666666"
     pagecolor="#ffffff"
     id="base"
     inkscape:zoom="0.65172414"
     inkscape:cx="229.14683"
     inkscape:cy="302.32864"
     inkscape:window-x="1680"
     inkscape:window-y="0"
     inkscape:current-layer="svg2"
     showgrid="false"
     inkscape:window-maximized="1" />
  <defs
     id="defs4">
    <inkscape:perspective
       sodipodi:type="inkscape:persp3d"
       inkscape:vp_x="0 : 290 : 1"
       inkscape:vp_y="0 : 1000 : 0"
       inkscape:vp_z="580 : 290 : 1"
       inkscape:persp3d-origin="290 : 193.33333 : 1"
       id="perspective2441" />
    <inkscape:perspective
       id="perspective3452"
       inkscape:persp3d-origin="30 : 20 : 1"
       inkscape:vp_z="60 : 30 : 1"
       inkscape:vp_y="0 : 1000 : 0"
       inkscape:vp_x="0 : 30 : 1"
       sodipodi:type="inkscape:persp3d" />
    <symbol
       viewBox="244.5 110 489 219.9"
       id="symbol-university">
      <path
         id="path4460"
         d="M79,43l57,119c0,0,21-96,104-96s124,106,124,106l43-133l82-17L0,17L79,43z" />
      <path
         id="path4462"
         d="M94,176l-21,39"
         stroke-width="20"
         stroke="#000000"
         fill="none" />
      <path
         id="path4464"
         d="M300,19c0,10.5-22.6,19-50.5,19S199,29.5,199,19s22.6-19,50.5-19S300,8.5,300,19z" />
      <path
         id="path4466"
         d="M112,216l-16-38L64,88c0,0-9-8-4-35s16-24,16-24"
         stroke-width="20"
         stroke="#000000"
         ill="none" />
    </symbol>
    <inkscape:perspective
       id="perspective4471"
       inkscape:persp3d-origin="372.04724 : 350.78739 : 1"
       inkscape:vp_z="744.09448 : 526.18109 : 1"
       inkscape:vp_y="0 : 1000 : 0"
       inkscape:vp_x="0 : 526.18109 : 1"
       sodipodi:type="inkscape:persp3d" />
    <inkscape:perspective
       id="perspective4668"
       inkscape:persp3d-origin="6 : 4 : 1"
       inkscape:vp_z="12 : 6 : 1"
       inkscape:vp_y="0 : 1000 : 0"
       inkscape:vp_x="0 : 6 : 1"
       sodipodi:type="inkscape:persp3d" />
    <inkscape:perspective
       id="perspective4904"
       inkscape:persp3d-origin="16 : 10.666667 : 1"
       inkscape:vp_z="32 : 16 : 1"
       inkscape:vp_y="0 : 1000 : 0"
       inkscape:vp_x="0 : 16 : 1"
       sodipodi:type="inkscape:persp3d" />
  </defs>
  <g
     id="g1327"
     transform="translate(0.0735,-0.43022222)">
    <path
       d="M 66.275,1.768 C 24.94,1.768 1.704,23.139 1.704,66.804 l 0,450.123 c 0,40.844 20.895,62.229 62.192,62.229 l 452.024,0 c 41.307,0 62.229,-20.315 62.229,-62.229 l 0,-450.123 c 0,-42.601 -20.922,-65.036 -63.521,-65.036 -0.004,0 -448.495,-0.143 -448.353,0 z"
       style="fill:#111111;stroke:#eeeeee;stroke-width:3.40799999"
       id="path1329"
       inkscape:connector-curvature="0" />
  </g>
  <rect
     y="-69.882286"
     x="207.25069"
     style="fill:none"
     width="376.44794"
     height="376.44794"
     id="rect3" />
  <g
     transform="matrix(10.173509,0,0,10.173509,286.29801,142.80114)"
     id="g5"
     style="fill:#ffffff;fill-opacity:1">
    <g
       id="g7"
       style="fill:#ffffff;fill-opacity:1">
      <path
         inkscape:connector-curvature="0"
         d="m 7.5,18.5 c -1.1,0 -2,0.9 -2,2 0,1.1 0.9,2 2,2 1.1,0 2,-0.9 2,-2 0,-1.1 -0.9,-2 -2,-2 l 0,0 z"
         id="path9"
         style="fill:#ffffff;fill-opacity:1" />
    </g>
  </g>
  <g
     transform="matrix(10.173509,0,0,10.173509,286.29801,142.80114)"
     id="g11"
     style="fill:#ffffff;fill-opacity:1">
    <g
       id="g13"
       style="fill:#ffffff;fill-opacity:1">
      <path
         inkscape:connector-curvature="0"
         d="m 17.5,18.5 c -1.1,0 -2,0.9 -2,2 0,1.1 0.9,2 2,2 1.1,0 2,-0.9 2,-2 0,-1.1 -0.9,-2 -2,-2 l 0,0 z"
         id="path15"
         style="fill:#ffffff;fill-opacity:1" />
    </g>
  </g>
  <path
     inkscape:connector-curvature="0"
     d="m 520.28873,315.7508 c -6.1041,0 -16.27761,40.69403 -10.17351,40.69403 h 30.52053 c 10.17351,0 10.17351,-10.17351 10.17351,-10.17351 L 520.28873,315.7508 z"
     id="path17"
     style="fill:#ffffff;fill-opacity:1" />
  <path
     inkscape:connector-curvature="0"
     d="M 489.7682,254.70974 H 286.29801 v 84.44012 c 0,9.15616 8.13881,17.29497 17.29497,17.29497 h 13.22556 c 0,-2.03471 0,-3.05205 0,-5.08676 0,-30.52053 18.31232,-47.81549 49.8502,-47.81549 19.32967,0 36.62463,18.31232 46.79815,33.57258 10.17351,-14.24291 32.55522,-32.55523 51.88489,-32.55523 30.52053,0 39.67668,17.29497 39.67668,48.83285 0,0 5.08676,-1.01735 5.08676,0 18.31231,-8.13881 30.52053,-25.43378 30.52053,-46.79815 v -1.01735 c 0,-28.48582 -22.38172,-50.86754 -50.86755,-50.86754 z"
     id="path19"
     style="fill:#ffffff;fill-opacity:1" />
  <path
     inkscape:connector-curvature="0"
     d="m 464.33442,295.40377 c -22.38171,0 -41.71138,13.22557 -50.86753,32.55523 -9.15617,-19.32966 -28.48583,-32.55523 -50.86755,-32.55523 -30.52053,0 -55.9543,25.43377 -55.9543,55.9543 0,30.52053 25.43377,55.9543 55.9543,55.9543 22.38172,0 41.71138,-13.22556 50.86755,-32.55523 9.15615,19.32967 28.48582,32.55523 50.86753,32.55523 30.52053,0 55.95431,-25.43377 55.95431,-55.9543 0,-30.52053 -25.43378,-55.9543 -55.95431,-55.9543 z m 0,91.56158 c -14.2429,0 -26.45112,-8.1388 -31.53787,-20.34701 h -37.64199 c -6.1041,12.20821 -18.31232,20.34701 -31.53787,20.34701 -20.34703,0 -36.62463,-16.27761 -36.62463,-35.60728 0,-19.32967 16.2776,-35.60727 35.60728,-35.60727 18.31231,0 32.55522,13.22555 34.58993,30.52052 h 31.53788 c 2.03469,-17.29497 17.29496,-30.52052 34.58992,-30.52052 19.32967,0 35.60729,16.2776 35.60729,35.60727 1.01735,19.32967 -15.26026,35.60728 -34.58994,35.60728 z"
     id="path21"
     style="fill:#ffffff;fill-opacity:1" />
  <rect
     x="361.58194"
     y="336.09772"
     width="104.78715"
     height="20.347019"
     id="rect23"
     style="fill:#ffffff;fill-opacity:1" />
  <rect
     x="296.47156"
     y="193.66858"
     class="st0"
     width="91.561584"
     height="101.73509"
     id="rect25"
     style="fill:none;stroke:#ffffff;stroke-width:20.4380188;stroke-miterlimit:4;stroke-opacity:1;stroke-dasharray:none" />
  <path
     inkscape:connector-curvature="0"
     d="M 393.11987,203.84219 H 286.29801 v -19.32966 c 0,-6.10411 5.08676,-11.19086 11.19086,-11.19086 h 95.631 c 8.1388,0 15.26026,7.12145 15.26026,15.26025 v 0 c 0,8.13881 -7.12146,15.26027 -15.26026,15.26027 z"
     id="path27"
     style="fill:#ffffff;fill-opacity:1" />
  <rect
     x="449.07416"
     y="234.36261"
     width="40.694038"
     height="40.694038"
     id="rect29"
     style="fill:#ffffff;fill-opacity:1" />
  <path
     inkscape:connector-curvature="0"
     d="m 489.7682,224.18921 h -40.69404 l -6.1041,-12.20821 c -2.03471,-5.08675 -1.01735,-10.17351 2.0347,-14.24291 l 4.0694,-4.06941 h 40.69404 l 4.0694,4.06941 c 4.0694,4.0694 4.0694,9.15616 2.03471,14.24291 l -6.10411,12.20821 z"
     id="path31"
     style="fill:#ffffff;fill-opacity:1" />
  <circle
     transform="matrix(10.318085,0,0,10.318085,45.145717,-6.277753)"
     sodipodi:ry="2"
     sodipodi:rx="2"
     sodipodi:cy="19"
     sodipodi:cx="4"
     style="fill:#ffffff;fill-opacity:1"
     cx="4"
     cy="19"
     r="2"
     id="circle3" />
  <path
     inkscape:connector-curvature="0"
     style="fill:#ffffff;fill-opacity:1"
     d="m 117.3723,241.35628 c 0,-17.54074 -13.4135,-30.95425 -30.954243,-30.95425 -17.540744,0 -30.954255,13.41351 -30.954255,30.95425 0,4.12723 0,16.50893 0,20.63617 H 117.3723 c 0,-4.12724 0,-16.50894 0,-20.63617 z"
     id="path5" />
  <circle
     transform="matrix(10.318085,0,0,10.318085,77.071502,-6.277753)"
     sodipodi:ry="2"
     sodipodi:rx="2"
     sodipodi:cy="19"
     sodipodi:cx="10"
     style="fill:#ffffff;fill-opacity:1"
     cx="10"
     cy="19"
     r="2"
     id="circle7" />
  <path
     inkscape:connector-curvature="0"
     style="fill:#ffffff;fill-opacity:1"
     d="m 211.2066,241.35628 c 0,-17.54074 -13.41351,-30.95425 -30.95425,-30.95425 -17.54075,0 -30.95426,13.41351 -30.95426,30.95425 0,4.12723 0,16.50893 0,20.63617 h 61.90851 c 0,-4.12724 0,-16.50894 0,-20.63617 z"
     id="path9-3" />
  <g
     transform="matrix(20.829771,0,0,20.829771,-12.489582,35.93443)"
     id="g7-0"
     style="fill:#ffffff;fill-opacity:1">
    <path
       inkscape:connector-curvature="0"
       d="m 5,15.5 c 0.3,0 0.5,0.2 0.5,0.5 0,0.3 -0.2,0.5 -0.5,0.5 C 4.7,16.5 4.5,16.3 4.5,16 4.5,15.7 4.7,15.5 5,15.5 M 5,14 c -1.1,0 -2,0.9 -2,2 0,1.1 0.9,2 2,2 1.1,0 2,-0.9 2,-2 0,-1.1 -0.9,-2 -2,-2 l 0,0 z"
       id="path9-7"
       style="fill:#ffffff;fill-opacity:1" />
  </g>
  <g
     transform="matrix(20.829771,0,0,20.829771,-12.489582,35.93443)"
     id="g11-6"
     style="fill:#ffffff;fill-opacity:1">
    <path
       inkscape:connector-curvature="0"
       d="m 10.11199,15.5 c 0.3,0 0.5,0.2 0.5,0.5 0,0.3 -0.2,0.5 -0.5,0.5 -0.3,0 -0.5,-0.2 -0.5,-0.5 0,-0.3 0.2,-0.5 0.5,-0.5 m 0,-1.5 c -1.1,0 -2,0.9 -2,2 0,1.1 0.9,2 2,2 1.1,0 2,-0.9 2,-2 0,-1.1 -0.9,-2 -2,-2 l 0,0 z"
       id="path13"
       style="fill:#ffffff;fill-opacity:1" />
  </g>
  <path
     d="m 29.190742,275.21175 0,52.32303 c 0,18.7468 2.609489,24.21381 12.273338,26.64481 3.175224,-17.52978 24.383376,-37.80965 49.995547,-37.80965 36.869803,0 52.662563,36.16662 52.662563,52.83042 7.06257,0.0354 -3.21733,-0.0842 1.75388,0 0,-16.6638 15.02194,-51.59104 52.46484,-52.25949 25.32604,-0.45214 49.53778,22.59551 49.53778,39.25932 12.11313,-2.94128 12.73111,-9.91861 12.73111,-28.66541 l 0,-52.32303 z"
     id="path19-2"
     inkscape:connector-curvature="0"
     sodipodi:nodetypes="cscsccscscc"
     style="fill:#ffffff;fill-opacity:1" />
</svg>

<svg width="580" height="580" viewBox="0 0 580 580" fill="none" xmlns="http://www.w3.org/2000/svg">
<g clip-path="url(#clip0)">
<path d="M66.3483 1.33797C25.0133 1.33797 1.77734 22.709 1.77734 66.374V516.497C1.77734 557.341 22.6723 578.726 63.9693 578.726H515.993C557.3 578.726 578.222 558.411 578.222 516.497V66.374C578.222 23.773 557.3 1.33797 514.701 1.33797C514.697 1.33797 66.2063 1.19497 66.3483 1.33797V1.33797Z" fill="#111111" stroke="#EEEEEE" stroke-width="3.408"/>
<path d="M362.599 331.011C351.408 331.011 342.252 340.167 342.252 351.358C342.252 362.549 351.408 371.705 362.599 371.705C373.79 371.705 382.946 362.549 382.946 351.358C382.946 340.167 373.79 331.011 362.599 331.011Z" fill="white"/>
<path d="M464.334 331.011C453.143 331.011 443.987 340.167 443.987 351.358C443.987 362.549 453.143 371.705 464.334 371.705C475.525 371.705 484.681 362.549 484.681 351.358C484.681 340.167 475.525 331.011 464.334 331.011Z" fill="white"/>
<path d="M520.289 315.751C514.185 315.751 504.011 356.445 510.116 356.445H540.636C550.81 356.445 550.81 346.272 550.81 346.272L520.289 315.751Z" fill="white"/>
<path d="M489.768 254.71H286.298V339.15C286.298 348.306 294.437 356.445 303.593 356.445H316.818C316.818 354.41 316.818 353.393 316.818 351.358C316.818 320.838 335.131 303.543 366.669 303.543C385.998 303.543 403.293 321.855 413.467 337.115C423.64 322.872 446.022 304.56 465.352 304.56C495.872 304.56 505.028 321.855 505.028 353.393C505.028 353.393 510.115 352.376 510.115 353.393C528.427 345.254 540.636 327.959 540.636 306.595V305.577C540.636 277.092 518.254 254.71 489.768 254.71V254.71Z" fill="white"/>
<path d="M464.335 295.403C441.953 295.403 422.623 308.629 413.467 327.959C404.311 308.629 384.982 295.403 362.6 295.403C332.079 295.403 306.646 320.837 306.646 351.358C306.646 381.878 332.079 407.312 362.6 407.312C384.982 407.312 404.311 394.086 413.467 374.757C422.623 394.086 441.953 407.312 464.335 407.312C494.855 407.312 520.289 381.878 520.289 351.358C520.289 320.837 494.855 295.403 464.335 295.403V295.403ZM464.335 386.965C450.092 386.965 437.884 378.826 432.797 366.618H395.155C389.051 378.826 376.843 386.965 363.617 386.965C343.27 386.965 326.993 370.687 326.993 351.358C326.993 332.028 343.27 315.75 362.6 315.75C380.912 315.75 395.155 328.976 397.19 346.271H428.728C430.762 328.976 446.023 315.75 463.318 315.75C482.647 315.75 498.925 332.028 498.925 351.358C499.942 370.687 483.665 386.965 464.335 386.965V386.965Z" fill="white"/>
<path d="M466.369 336.098H361.582V356.445H466.369V336.098Z" fill="white"/>
<path d="M388.033 193.669H296.472V295.404H388.033V193.669Z" stroke="white" stroke-width="20.438"/>
<path d="M393.12 203.842H286.298V184.512C286.298 178.408 291.385 173.321 297.489 173.321H393.12C401.259 173.321 408.38 180.443 408.38 188.582C408.38 196.72 401.259 203.842 393.12 203.842V203.842Z" fill="white"/>
<path d="M489.768 234.362H449.074V275.056H489.768V234.362Z" fill="white"/>
<path d="M489.768 224.189H449.074L442.97 211.981C440.935 206.895 441.952 201.808 445.004 197.738L449.074 193.669H489.768L493.837 197.738C497.907 201.808 497.907 206.895 495.872 211.981L489.768 224.189Z" fill="white"/>
<path d="M86.4184 210.402C97.8154 210.402 107.055 201.163 107.055 189.766C107.055 178.369 97.8154 169.13 86.4184 169.13C75.0214 169.13 65.7822 178.369 65.7822 189.766C65.7822 201.163 75.0214 210.402 86.4184 210.402Z" fill="white"/>
<path d="M117.372 241.357C117.372 223.816 103.959 210.402 86.4181 210.402C68.8774 210.402 55.4639 223.816 55.4639 241.357C55.4639 245.484 55.4639 257.866 55.4639 261.993H117.372C117.372 257.866 117.372 245.484 117.372 241.357V241.357Z" fill="white"/>
<path d="M180.252 210.402C191.649 210.402 200.889 201.163 200.889 189.766C200.889 178.369 191.649 169.13 180.252 169.13C168.855 169.13 159.616 178.369 159.616 189.766C159.616 201.163 168.855 210.402 180.252 210.402Z" fill="white"/>
<path d="M211.206 241.357C211.206 223.816 197.793 210.402 180.252 210.402C162.711 210.402 149.298 223.816 149.298 241.357C149.298 245.484 149.298 257.866 149.298 261.993H211.206C211.206 257.866 211.206 245.484 211.206 241.357V241.357Z" fill="white"/>
<path d="M91.6595 358.795C97.9085 358.795 102.074 362.961 102.074 369.21C102.074 375.459 97.9085 379.625 91.6595 379.625C85.4106 379.625 81.2447 375.459 81.2447 369.21C81.2447 362.961 85.4106 358.795 91.6595 358.795ZM91.6595 327.551C68.7468 327.551 50 346.298 50 369.21C50 392.123 68.7468 410.87 91.6595 410.87C114.572 410.87 133.319 392.123 133.319 369.21C133.319 346.298 114.572 327.551 91.6595 327.551Z" fill="white"/>
<path d="M198.141 358.795C204.39 358.795 208.556 362.961 208.556 369.21C208.556 375.459 204.39 379.625 198.141 379.625C191.892 379.625 187.726 375.459 187.726 369.21C187.726 362.961 191.892 358.795 198.141 358.795ZM198.141 327.551C175.228 327.551 156.481 346.298 156.481 369.21C156.481 392.123 175.228 410.87 198.141 410.87C221.054 410.87 239.801 392.123 239.801 369.21C239.801 346.298 221.054 327.551 198.141 327.551Z" fill="white"/>
<path d="M29.1904 275.212V327.535C29.1904 346.282 31.7999 351.749 41.4638 354.18C44.639 336.65 65.8471 316.37 91.4593 316.37C128.329 316.37 144.122 352.537 144.122 369.201C151.184 369.236 140.905 369.116 145.876 369.201C145.876 352.537 160.898 317.609 198.341 316.941C223.667 316.489 247.878 339.537 247.878 356.2C259.992 353.259 260.609 346.282 260.609 327.535V275.212H29.1904Z" fill="white"/>
</g>
<defs>
<clipPath id="clip0">
<path d="M0 0H580V580H0V0Z" fill="white"/>
</clipPath>
</defs>
</svg>
